frontend/src/assets/icons/phone-hang-up.svg

<svg width="24" height="24" viewBox="0 0 24 24" fill="none" xmlns="http://www.w3.org/2000/svg">
<g id="phone-hang-up">
<path id="Icon" d="M5.47542 12.8631C4.44449 11.2622 3.67643 9.54121 3.17124 7.76131C3.01103 7.19687 2.93093 6.91464 2.9297 6.5017C2.92833 6.04347 3.08969 5.42298 3.31412 5.02348C3.51636 4.66345 3.78117 4.39863 4.3108 3.86901L4.46843 3.71138C4.99987 3.17993 5.2656 2.91421 5.55098 2.76987C6.11854 2.4828 6.7888 2.4828 7.35636 2.76987C7.64174 2.91421 7.90747 3.17993 8.43891 3.71138L8.63378 3.90625C8.98338 4.25585 9.15819 4.43066 9.27247 4.60643C9.70347 5.26932 9.70347 6.1239 9.27247 6.7868C9.15819 6.96257 8.98338 7.13738 8.63378 7.48698C8.51947 7.60129 8.46231 7.65845 8.41447 7.72526C8.24446 7.96269 8.18576 8.30695 8.26748 8.58731C8.29048 8.6662 8.32041 8.72855 8.38028 8.85324C8.50111 9.10491 8.62956 9.35383 8.76563 9.59967M11.1817 12.8179L11.2266 12.8631C12.4282 14.0646 13.7869 15.0134 15.2365 15.7094C15.3612 15.7693 15.4235 15.7992 15.5024 15.8222C15.7828 15.904 16.127 15.8453 16.3644 15.6752C16.4313 15.6274 16.4884 15.5702 16.6027 15.4559C16.9523 15.1063 17.1271 14.9315 17.3029 14.8172C17.9658 14.3862 18.8204 14.3862 19.4833 14.8172C19.6591 14.9315 19.8339 15.1063 20.1835 15.4559L20.3783 15.6508C20.9098 16.1822 21.1755 16.448 21.3198 16.7333C21.6069 17.3009 21.6069 17.9712 21.3198 18.5387C21.1755 18.8241 20.9098 19.0898 20.3783 19.6213L20.2207 19.7789C19.6911 20.3085 19.4263 20.5733 19.0662 20.7756C18.6667 21 18.0462 21.1614 17.588 21.16C17.1751 21.1588 16.8928 21.0787 16.3284 20.9185C13.295 20.0575 10.4326 18.433 8.04466 16.045L7.99976 16M20.9996 3L2.99961 21" stroke="black" stroke-width="2" stroke-linecap="round" stroke-linejoin="round"/>
</g>
</svg>

<svg xmlns="http://www.w3.org/2000/svg" width="24" height="24" fill="none" viewBox="0 0 24 24">
  <path stroke="#000" stroke-linecap="round" stroke-linejoin="round" stroke-width="2" d="M5.475 12.863a18.998 18.998 0 0 1-2.304-5.102c-.16-.564-.24-.846-.241-1.26a3.377 3.377 0 0 1 .384-1.478c.202-.36.467-.624.997-1.154l.157-.158c.532-.531.798-.797 1.083-.941a2 2 0 0 1 1.805 0c.286.144.551.41 1.083.941l.195.195c.35.35.524.525.638.7a2 2 0 0 1 0 2.18c-.114.177-.289.351-.638.701a2.02 2.02 0 0 0-.22.238 1.05 1.05 0 0 0-.147.862c.023.08.053.142.113.266.121.252.25.5.386.747m2.416 3.218.045.045a14.605 14.605 0 0 0 4.01 2.846c.124.06.187.09.265.113.28.082.625.023.862-.147.067-.048.124-.105.239-.22.35-.349.524-.524.7-.638a2 2 0 0 1 2.18 0c.176.114.35.29.7.639l.195.195c.532.531.797.797.942 1.082a2 2 0 0 1 0 1.806c-.145.285-.41.55-.942 1.082l-.157.158c-.53.53-.795.794-1.155.997-.4.224-1.02.385-1.478.384-.413-.001-.695-.081-1.26-.241a19.038 19.038 0 0 1-8.283-4.874L8 16M21 3 3 21"/>
</svg>
